X: 32
T: This Is My Love, Do You Like Her?
Z: Mick Hursey
S: https://thesession.org/tunes/6#setting49086
R: jig
M: 6/8
L: 1/8
K: Amin
|:ABA AGE|c3 c2d|efe edc|g3e2a|
gec cde|dBG GAB|c2A BGE|c3 A3:|
|:aba age|gag geg|aba age|g3e2a|
gec cde|dBG GAB|c2A BGE|c3 A3:|

